X:244
T: ERTOENE BEGEISTERNDES VATERLANDSLIED
N: F0423
O: Europa, Mitteleuropa, Deutschland
R: Vaterlands -, Heimat - Lied, nationalistisch, Sachsen - Lied
M: 4/4
L: 1/16
K: Bb
F4 | B4B3BB2F2D2B,2 | F4F3FF4
F2B2 | d4c3de4d2d2 | d4c4z4
F4 | B4B3BB2F2D2B,2 | F4F3FF4
F2B2 | d4c3de4d2d2 | d4c4z4
F2A2 | c4c2c2c4B2c2 | d4c4B4
f4 | f4F3FF4G2A2 | B2d2c2A2B4

